X:45
T:Boys of Malin, The
R:reel
D:Paddy Glackin: Ceol ar an bhFidil le Paddy Glackin.
Z:id:hn-reel-45
M:C|
K:A
ABcd eAce|fedf edcB|ABcd eAce|1 fdBc d2cB:|2 fdBc defg||
|:aA~A2 cAce|~a3g fefg|1 aA~A2 cAce|dcBc defg:|2 afge fdec|dfBc d2cB||
|:Aece Aece|Aece d2cB|Aece Aece|fdBc d2cB:|
<end>
<start>
